usr/share/icons/biglinux-icons-material-dark/16/actions/align-sel-as-group.svg

<svg width="22" height="22" version="1.1" xmlns="http://www.w3.org/2000/svg">
 <path class="ColorScheme-Text" d="m2 3v16h1v-16h-1zm3 0v6h3v3h6v-3h3v-6h-12zm14 0v16h1v-16h-1zm-13 1h10v4h-2v-2h-6v2h-2v-4zm3 3h4v1 1 2h-4v-2-1-1zm-2 6v6h10v-6h-10zm1 1h8v4h-8v-4z" color="#dedede" fill="currentColor"/>
</svg>

<svg xmlns="http://www.w3.org/2000/svg" width="22" height="22">
<path fill="currentColor" d="M2 3v16h1V3zm3 0v6h3v3h6V9h3V3zm14 0v16h1V3zM6 4h10v4h-2V6H8v2H6zm3 3h4v4H9zm-2 6v6h10v-6zm1 1h8v4H8z" class="ColorScheme-Text" color="#dedede"/>
</svg>
